X:89
T:Canon in D Major - Melody
C:Pachelbel, J.
M:4/4
L:1/8
Q:1/4=60
K:D
|:f2|f4 ef g2|f2 ed c2 B2|A4 Bc d2|e4 d2 c2|
B4 AB c2|d2 ef g2 a2|b4 ag f2|d4 d2:|

